!!!OTL: O STRASBURG O STRASBURG DU WUNDERSCHOENE STADT
!!!ARE: Europa, Mitteleuropa, Deutschland, Westfalen
!!!SCT: Z0002
!!!YEM: Copyright 1995, estate of Helmut Schaffrath.
**kern
*ICvox
*Ivox
*M2/4
*k[b-]
*F:
{8c
=1
4f
8e
8g
=2
4g
8f}
{8g
=3
8a
8f
8b-
8a
=4
4.g}
{8c
=5
4f
8e
8g
=6
4g
8f}
{8g
=7
8a
8f
8b-
8a
=8
4.g}
{8a
=9
8b-
8dd
8b-
8g
=10
8a
8cc
8a}
{8f
=11
8a
8g
8g
8g
=12
8dd}
{8cc
8cc
8cc
=13
8cc
8b-
8dd
8b-
=14
8b-
8a
8cc}
{8a
=15
8a
8g
8g
8g
=16
4.f}
==
!!!AGN: Sagen - Lied, Romanze
!!!ONB: ESAC (Essen Associative Code) Database: ZUCCAL
!!!AMT: simple duple
!!!AIN: vox
!!!EED: Helmut Schaffrath
!!!EEV: 1.0
*-
